X:277
T:Bramley Brae, The
C:William MacPherson (1919-1974)
S:Learned from Seonaid Lynn, Edinburgh
Z:Nigel Gatherer <gatherer@argonet.co.uk>
M:4/4
L:1/8
K:D
d2 cd AFDd | cdAF DFAF | E2 EF GFED | CDEF GABc | d2 cd AFDd | cdAF DFAF |
E2 gf edcB |1 Acec d2 (3ABc :|2 Acec defg |: a2 ^ga fdAa | ^gafd Aa^g | =gfeg bagf |
edcB Acec | d2 cd AFDd | cdAF DFAF | E2 gf edcB |1 Acec defg :|2 Acec d2 |]
